X: 1
T: O virgo splendens
B: Llibre Vermeil
H: 14th Century
F:http://www.cervantesvirtual.com/s3/BVMC_OBRAS/ff6/fe3/e28/2b1/11d/fac/c70/021/85c/e60/64/mimes/imagenes/ff6fe3e2-82b1-11df-acc7-002185ce6064_111.jpg
F:http://www.cervantesvirtual.com/s3/BVMC_OBRAS/ff6/fe3/e28/2b1/11d/fac/c70/021/85c/e60/64/mimes/imagenes/ff6fe3e2-82b1-11df-acc7-002185ce6064_112.jpg
Z:Ali Corbin <ali.corbin:gmail.com>
N: As a three part canon with equal notes
M: none
L: 1/4
Q: 1/4=80
K: D Dorian
%%MIDI program 1 74 %% recorder
%%MIDI program 2 73 %% flute
%%MIDI program 3 79 %% ocarina
%%score (1 2 3)
V:1
"^I" (FGF AGA FGF FDED) (CD)  D3|
"^II" (DCD FGF) (AGA FAG AcA) A3 |
"^III"  (BcA) (AGA cdA AF) (ED) (CD)  D3 | G (FD) F (GF) (ED FD AGF) (GA) A3 |
 (GA) (Ac) (Bc) (cdA) F (DEFGD) D3 | (ED) (DCDC) (ED DA AGAGA) A3 |
 (CD) (FG)  (FECD)   D  D (FGFED)  D3 |(GFA GAB cA) F    A (AG) (Acd) A3 |
 (dc) (cBA) (GA AF) (FGF) (FAG) A3 | G  A (AB) c (dA)   F  F (DCDF)   F  E D3 |
  G (FD)  D   E  D  D (DFA) (AGF)    D  C  D3 |  
  C   D   F (FG) F (AFAcABABc) A3 | (GA)   F (FEF) (DADCDEDDC)  D3 ||
V:2
 (GA)   F (FEF) (DADCDEDDC)  D3 || (FGF AGA FGF FDED) (CD)  D3| (DCD FGF) (AGA FAG AcA) A3 |
 (BcA) (AGA cdA AF) (ED) (CD)  D3 | G (FD) F (GF) (ED FD AGF) (GA) A3 |
 (GA) (Ac) (Bc) (cdA) F (DEFGD) D3 | (ED) (DCDC) (ED DA AGAGA) A3 |
 (CD) (FG)  (FECD)   D  D (FGFED)  D3 |(GFA GAB cA) F    A (AG) (Acd) A3 |
 (dc) (cBA) (GA AF) (FGF) (FAG) A3 | G  A (AB) c (dA)   F  F (DCDF)   F  E D3 |
  G (FD)  D   E  D  D (DFA) (AGF)    D  C  D3 |  
 C   D   F (FG) F (AFAcABABc) A3 |
V:3
  C   D   F (FG) F (AFAcABABc) A3|
w:VII45 i45 IIIU III3 ii3 III3 i X i III5 i5 II5 i5 X X i5
  (GA)   F (FEF) (DADCDEDDC)  D3 ||
w:i34 VII45 i3 III3 ii3 III3 i (i)45 i III5 i5 ii3 i5 (v)45 v45 i5	
 (FGF AGA FGF FDED) (CD)  D3|
w:vid VII5 i III3 ivU III3 III IV5 III3 III3 i ii3 i5 VII8 i5 i5
 (DCD FGF) (AGA FAG AcA) A3 |
w:IV III5 i5 III3 IVU III3 v IV5 III3 i III3 ii3 i VII5 i5 i5
 (BcA) (AGA cdA AF) (ED) (CD)  D3 |
w:IV3 III i5 III IV3 III VII3 i8 III3 i i ii3 i3 VII5 i5 i5
  G (FD) F (GF) (ED FD AGF) (GA) A3 |
w:III3 i i5 III5 IV III5 VII3 i8 i i i5 ii3 III3 IVU i5 i5
 (GA) (Ac) (Bc) (cdA) F (DEFGD) D3 |
w:VII i5 i VII5 vid VII3 VII3 i8 i5 i i ii3 III3 ii3 i5 i5 
 (ED) (DCDC) (ED DA AGAGA) A3 |
w:VII i3 i VII5 i5 X VII3 i5 i3 i5 III3 IVU III3 VII i5 i5
 (CD) (FG)  (FECD)   D  D (FGFED)  D3 |
w:VII5 i3 III IV3 III3 ii v3 i5 i3 i III3 X III3 v IV5 i5
 (GFA GAB cA) F    A (AG) (Acd) A3 |
w:IV5 III v3 IV3 v3 IV v3 III3 IIIu i VII45 i34 IIIu i VII i5
 (dc) (cBA) (GA AF) (FGF) (FAG) A3 |
w:IV5 i i vid VII IV5 i5 i5 IIIU i VII45 i34 IIIU i VII i5
  G  A (AB) c (dA)   F  F (DCDF)   F  E D3 |
w: VII5 i i vid VII i3 i5 III3 v34 v34 v3 IV III3 vid VII3 i5
  G (FD)  D   E  D  D (DFA) (AGF)    D  C  D3 |  
w:VII5 i i3 i3 ii3 i5 i i v3 i5 i5 ii I x VIIu i5

